packages/foundations/assets/icons/functional/images/social/star_32.svg

<svg width="32" height="32" viewBox="0 0 32 32" fill="none" xmlns="http://www.w3.org/2000/svg">
<g clip-path="url(#clip0_187_432)">
<path fill-rule="evenodd" clip-rule="evenodd" d="M16 2.65619C16.375 2.65619 16.7329 2.83639 16.9062 3.18749L20.6875 10.8438L29.1562 12.0625C29.6759 12.1373 30 12.6256 30 13.0625C30 13.3125 29.8774 13.5962 29.6875 13.7812L23.5625 19.75L25.0312 28.1875C25.1406 28.8154 24.6562 29.3438 24.0312 29.3438C23.875 29.3438 23.7238 29.3034 23.5625 29.2188L16 25.25L8.4375 29.2188C8.2762 29.3034 8.125 29.3438 7.9688 29.3438C7.3127 29.3438 6.8759 28.7207 6.9688 28.1875L8.4375 19.75L2.3125 13.7812C2.1062 13.5802 2 13.3125 2 13.0625C2 12.681 2.2648 12.1458 2.8438 12.0625L11.3125 10.8438L15.0938 3.18749C15.2671 2.83639 15.625 2.65619 16 2.65619ZM16 5.87499L12.875 12.1875C12.72 12.5006 12.4359 12.7054 12.125 12.75L5.1562 13.75L10.1875 18.6875C10.4483 18.9434 10.5781 19.2509 10.5 19.6875L9.2812 26.5L15.5312 23.2188C15.6926 23.134 15.8438 23.0938 16 23.0938C16.1562 23.0938 16.3074 23.134 16.4688 23.2188L22.7188 26.5L21.5312 19.6562C21.4663 19.2817 21.4655 19.028 21.8125 18.6875L26.8438 13.75L19.875 12.75C19.5641 12.7054 19.28 12.5006 19.125 12.1875L16 5.87499Z" fill="#1A1C1F"/>
</g>
<defs>
<clipPath id="clip0_187_432">
<rect width="32" height="32" fill="white"/>
</clipPath>
</defs>
</svg>

<svg xmlns="http://www.w3.org/2000/svg" width="32" height="32" fill="none"><g clip-path="url(#a)"><path fill="#1A1C1F" fill-rule="evenodd" d="M16 2.656c.375 0 .733.18.906.531l3.782 7.657 8.468 1.219c.52.074.844.563.844 1 0 .25-.123.533-.312.718l-6.125 5.969 1.468 8.438c.11.627-.375 1.156-1 1.156a1 1 0 0 1-.468-.125L16 25.25l-7.562 3.969a1 1 0 0 1-.47.125c-.655 0-1.092-.623-1-1.157l1.47-8.437-6.126-5.969A1.02 1.02 0 0 1 2 13.062c0-.381.265-.916.844-1l8.469-1.218 3.78-7.657c.174-.35.532-.53.907-.53m0 3.219-3.125 6.313c-.155.313-.44.517-.75.562l-6.969 1 5.032 4.938c.26.255.39.563.312 1L9.281 26.5l6.25-3.281a1 1 0 0 1 .469-.125c.156 0 .307.04.469.125l6.25 3.281-1.188-6.844c-.065-.374-.066-.628.282-.968l5.03-4.938-6.968-1a1 1 0 0 1-.75-.562z" clip-rule="evenodd"/></g><defs><clipPath id="a"><path fill="#fff" d="M0 0h32v32H0z"/></clipPath></defs></svg>
